X: 1
T: Pringle's Quickstep  [ABBCC]
C: John Pringle (1770?-1812)
R: reel
Z: 2009 John Chambers <jc:trillian.mit.edu>
S: printed MS of unknown origin from Sylvia Miskoe
B: John Pringle "A Collection of Reels Strathspeys & Jigs" Edinburgh 1801
F: http://www.heallan.com/pringle.html 2009-2-25
M: C|
L: 1/8
K: Bb
dc \
| "Bb"B2b2- "Eb"b2ag | "Bb"f2d2 B2df | "C"e2d2 c2B2 | "F"BAcA "F7"F2GA \
| "Bb"B2b2- "Eb"b2ag | "Cm"g2e2 "F7"c2fe | "Bb"d2B2 "F7"ecBA | "B"B2B2 B2 :|
|: AB \
| "F"c2c2 cBAB | "F"c4 "F7"F4 | "Bb"B2d2 "D7"g2^f2 | "Gm"g4 g2ab \
| "Bb"f2b2 d2f2 | "Bb"B2d2 f2d2 | "Cm"e2c2 "Gm"d2B2 | "C7"cBAG "F"F2 :|
|: DF \
| "Bb"B2B2 B2AB | "F"c2c2 c2FA | "Bb"B2d2 "D7"g2^f2 | "Gm"g4 g2ab \
| "Bb"f2f2 f2df | "Bb(Gm)"B2B2 B2fd | "Cm"edcB "F7"AGFA | "Bb"B2B2 B2 :|
